assets/img/braze_icons/folder.svg

<svg fill="none" height="24" viewBox="0 0 24 24" width="24" xmlns="http://www.w3.org/2000/svg"><path clip-rule="evenodd" d="m1 6.16167c-.000016-.52713-.000031-.98192.03057-1.35648.0323-.39535.10362-.78857.29641-1.16695.28762-.56448.74656-1.02342 1.31105-1.31104.37838-.1928.7716-.26411 1.16694-.29642.37458-.0306.82934-.03058 1.35648-.03057l3.98521-.0001c.59356-.00079 1.11554-.00148 1.59544.16407.4204.145.8033.38163 1.121.69278.3627.35525.5955.82243.8603 1.35368l.8945 1.78936h3.6234c.805-.00001 1.4693-.00002 2.0105.04419.5621.04593 1.0788.14449 1.5642.39179.7526.38349 1.3645.99541 1.748 1.74806.2473.48533.3459 1.00204.3918 1.56413.0442.54123.0442 1.20553.0442 2.01053v4.4826c0 .805 0 1.4693-.0442 2.0105-.0459.5621-.1445 1.0788-.3918 1.5642-.3835.7526-.9954 1.3645-1.748 1.748-.4854.2473-1.0021.3459-1.5642.3918-.5412.0442-1.2055.0442-2.0105.0442h-10.48257c-.80497 0-1.46936 0-2.01055-.0442-.5621-.0459-1.0788-.1445-1.56414-.3918-.75265-.3835-1.36457-.9954-1.74806-1.748-.2473-.4854-.34586-1.0021-.39178-1.5642-.044222-.5412-.044212-1.2055-.0442-2.0105zm8.02229-2.16145c.79042 0 .94709.01304 1.06771.05465.1401.04833.2678.12721.3737.23093.0911.08928.1729.22358.5263.93055l.3919.78365h-8.38183c.00045-.46499.00351-.78284.02386-1.03195.0222-.27166.05987-.37238.08507-.42183.09587-.18816.24885-.34114.43701-.43701.04945-.02519.15017-.06287.42183-.08507.28334-.02315.65561-.02392 1.23216-.02392z" fill="#801ed7" fill-rule="evenodd"/></svg>

<svg width="24" height="24" viewBox="0 0 24 24" fill="none" xmlns="http://www.w3.org/2000/svg">
<path fill-rule="evenodd" clip-rule="evenodd" d="M1 6.16167C0.999984 5.63454 0.999969 5.17975 1.03057 4.80519C1.06287 4.40984 1.13419 4.01662 1.32698 3.63824C1.6146 3.07376 2.07354 2.61482 2.63803 2.3272C3.01641 2.1344 3.40963 2.06309 3.80497 2.03078C4.17955 2.00018 4.63431 2.0002 5.16145 2.00021L9.14666 2.00011C9.74022 1.99932 10.2622 1.99863 10.7421 2.16418C11.1625 2.30918 11.5454 2.54581 11.8631 2.85696C12.2258 3.21221 12.4586 3.67939 12.7234 4.21064L13.6179 6H17.2413C18.0463 5.99999 18.7106 5.99998 19.2518 6.04419C19.8139 6.09012 20.3306 6.18868 20.816 6.43598C21.5686 6.81947 22.1805 7.43139 22.564 8.18404C22.8113 8.66937 22.9099 9.18608 22.9558 9.74817C23 10.2894 23 10.9537 23 11.7587V16.2413C23 17.0463 23 17.7106 22.9558 18.2518C22.9099 18.8139 22.8113 19.3306 22.564 19.816C22.1805 20.5686 21.5686 21.1805 20.816 21.564C20.3306 21.8113 19.8139 21.9099 19.2518 21.9558C18.7106 22 18.0463 22 17.2413 22H6.75873C5.95376 22 5.28937 22 4.74818 21.9558C4.18608 21.9099 3.66938 21.8113 3.18404 21.564C2.43139 21.1805 1.81947 20.5686 1.43598 19.816C1.18868 19.3306 1.09012 18.8139 1.0442 18.2518C0.999978 17.7106 0.999988 17.0463 1 16.2413V6.16167ZM9.02229 4.00022C9.81271 4.00022 9.96938 4.01326 10.09 4.05487C10.2301 4.1032 10.3578 4.18208 10.4637 4.2858C10.5548 4.37508 10.6366 4.50938 10.99 5.21635L11.3819 6L3.00007 6C3.00052 5.53501 3.00358 5.21716 3.02393 4.96805C3.04613 4.69639 3.0838 4.59567 3.109 4.54622C3.20487 4.35806 3.35785 4.20508 3.54601 4.10921C3.59546 4.08402 3.69618 4.04634 3.96784 4.02414C4.25118 4.00099 4.62345 4.00022 5.2 4.00022H9.02229Z" fill="#801ED7"/>
</svg>
